icons/crosshairs-16.svg

<svg width="16" height="16" viewBox="0 0 16 16" fill="none" xmlns="http://www.w3.org/2000/svg">
<g clip-path="url(#clip0_4_69)">
<path d="M12.5 8C12.5 5.51472 10.4853 3.5 8 3.5C5.51472 3.5 3.5 5.51472 3.5 8C3.5 10.4853 5.51472 12.5 8 12.5C10.4853 12.5 12.5 10.4853 12.5 8ZM14 8C14 11.3137 11.3137 14 8 14C4.68629 14 2 11.3137 2 8C2 4.68629 4.68629 2 8 2C11.3137 2 14 4.68629 14 8Z" fill="black"/>
<path d="M8 10.25C8.41421 10.25 8.75 10.5858 8.75 11V15C8.75 15.4142 8.41421 15.75 8 15.75C7.58579 15.75 7.25 15.4142 7.25 15V11C7.25 10.5858 7.58579 10.25 8 10.25ZM5 7.25C5.41421 7.25 5.75 7.58579 5.75 8C5.75 8.41421 5.41421 8.75 5 8.75H1C0.585786 8.75 0.25 8.41421 0.25 8C0.25 7.58579 0.585786 7.25 1 7.25H5ZM15 7.25C15.4142 7.25 15.75 7.58579 15.75 8C15.75 8.41421 15.4142 8.75 15 8.75H11C10.5858 8.75 10.25 8.41421 10.25 8C10.25 7.58579 10.5858 7.25 11 7.25H15ZM8 0.25C8.41421 0.25 8.75 0.585786 8.75 1V5C8.75 5.41421 8.41421 5.75 8 5.75C7.58579 5.75 7.25 5.41421 7.25 5V1C7.25 0.585786 7.58579 0.25 8 0.25Z" fill="black"/>
</g>
<defs>
<clipPath id="clip0_4_69">
<rect width="16" height="16" fill="white"/>
</clipPath>
</defs>
</svg>

<svg xmlns="http://www.w3.org/2000/svg" width="16" height="16" viewBox="0 0 16 16"><path d="M14 8A6 6 0 1 1 2 8a6 6 0 0 1 12 0Zm-1.5 0a4.5 4.5 0 1 0-9 0 4.5 4.5 0 0 0 9 0Z"/><path d="M5 7.25a.75.75 0 0 1 0 1.5H1a.75.75 0 0 1 0-1.5Zm3-7a.75.75 0 0 1 .75.75v4a.75.75 0 0 1-1.5 0V1A.75.75 0 0 1 8 .25Zm7 7a.75.75 0 0 1 0 1.5h-4a.75.75 0 0 1 0-1.5Zm-7 3a.75.75 0 0 1 .75.75v4a.75.75 0 0 1-1.5 0v-4a.75.75 0 0 1 .75-.75Z"/></svg>
